svgs/light/file-medical.svg

<svg xmlns="http://www.w3.org/2000/svg" viewBox="0 0 384 512"><!-- Font Awesome Pro 6.0.0-alpha2 by @fontawesome - https://fontawesome.com License - https://fontawesome.com/license (Commercial License) --><path d="M365.256 125.254L258.746 18.746C246.744 6.742 230.465 0 213.49 0H64C28.654 0 0 28.656 0 64V448C0 483.344 28.654 512 64 512H320C355.348 512 384 483.344 384 448V170.508C384 153.535 377.258 137.258 365.256 125.254ZM224 34.078C228.477 35.641 232.666 37.922 236.119 41.375L342.627 147.879C346.08 151.332 348.357 155.523 349.924 160H240C231.188 160 224 152.828 224 144V34.078ZM352 448C352 465.645 337.645 480 320 480H64C46.355 480 32 465.645 32 448V64C32 46.355 46.355 32 64 32H192V144C192 170.469 213.531 192 240 192H352V448ZM224 240C224 231.164 216.836 224 208 224H176C167.164 224 160 231.164 160 240V288H112C103.164 288 96 295.164 96 304V336C96 344.836 103.164 352 112 352H160V400C160 408.836 167.164 416 176 416H208C216.836 416 224 408.836 224 400V352H272C280.836 352 288 344.836 288 336V304C288 295.164 280.836 288 272 288H224V240Z"/></svg>

<svg xmlns="http://www.w3.org/2000/svg" viewBox="0 0 384 512"><!--! Font Awesome Pro 6.0.0-alpha3 by @fontawesome - https://fontawesome.com License - https://fontawesome.com/license (Commercial License) --><path d="M365.3 125.3l-106.5-106.5C246.7 6.742 230.5 0 213.5 0H64C28.65 0 0 28.66 0 64l.0065 384c0 35.34 28.65 64 64 64H320c35.35 0 64-28.66 64-64V170.5C384 153.5 377.3 137.3 365.3 125.3zM224 34.08c4.477 1.562 8.666 3.844 12.12 7.297l106.5 106.5C346.1 151.3 348.4 155.5 349.9 160H240C231.2 160 224 152.8 224 144V34.08zM352 448c0 17.64-14.36 32-32 32H64c-17.64 0-32-14.36-32-32V64c0-17.64 14.36-32 32-32h128v112C192 170.5 213.5 192 240 192H352V448zM224 240C224 231.2 216.8 224 208 224h-32C167.2 224 160 231.2 160 240V288H112C103.2 288 96 295.2 96 303.1V336c0 8.836 7.164 15.1 16 15.1l48 .0006v47.1C160 408.8 167.2 416 176 416h32c8.836 0 16-7.166 16-16v-47.1l48-.0006c8.836 0 16-7.162 16-15.1V303.1C288 295.2 280.8 288 272 288H224V240z"/></svg>
